!!!SOCIAL_FUNCTION:	war songs
!!!PDT:	1909
!!!OTL: No_159_Scalp_Song.krn
!!!REG: Great_Lakes
!!!LANG: Non-Tone
!!!LING_GROUP: Algonquin
**kern	**kern
*staff2	*staff1
=1-	=1-
*clefF4	*clefF4
*k[f#c#]	*k[f#c#]
*M3/4	*M3/4
12GG^/	8B\L
12r	.
.	8d\J
12GG/	.
12GG^/	8d\L
12r	.
.	8B\J
12GG/	.
12GG^/	8.B\L
12r	.
12GG/	.
.	16d\Jk
=2||	=2||
*M2/4	*M2/4
2r	8B\L
.	8B\J
.	4B\
=3	=3
2r	8B\L
.	8B\J
.	8B\L
.	8A\J
=4	=4
2r	8G\L
.	8E\J
.	8E\L
.	8E\J
=5	=5
2r	8G\L
.	[8E\J
.	4E\]
=6	=6
2r	8G\L
.	8G\J
.	16G\LL
.	16E\J
.	8E\J
=7	=7
2r	8E\L
.	8E\J
.	4E\
=8	=8
2r	16E\LK
.	8.E\J
.	8.E\L
.	16D\Jk
=9	=9
2r	8BB/L
.	8D/J
.	8E\L
.	8D\J
=10	=10
2r	8BB/L
.	8BB/J
.	4BB/
=11	=11
2r	2BB/
==	==
*-	*-
